symbols/web/headphones_battery/materialsymbolssharp/headphones_battery_wght500_48px.svg

<svg xmlns="http://www.w3.org/2000/svg" height="48" width="48"><path d="M3.8 36.15v-12q0-5.1 3.55-8.65 3.55-3.55 8.65-3.55 5.1 0 8.65 3.55 3.55 3.55 3.55 8.65v12h-7.25v-9h5v-3q0-4.15-2.9-7.05-2.9-2.9-7.05-2.9t-7.05 2.9q-2.9 2.9-2.9 7.05v3h5v9Zm29.2 0v-22.6h3.9v-1.6h3.15v1.65h4.15v22.55ZM36.15 33h4.9-4.9Zm0 0h4.9V16.7h-4.9Z"/></svg>

<svg xmlns="http://www.w3.org/2000/svg" height="48" width="48"><path d="M3.8 36.15V24.15Q3.8 19.05 7.35 15.5Q10.9 11.95 16 11.95Q21.1 11.95 24.65 15.5Q28.2 19.05 28.2 24.15V36.15H20.95V27.15H25.95V24.15Q25.95 20 23.05 17.1Q20.15 14.2 16 14.2Q11.85 14.2 8.95 17.1Q6.05 20 6.05 24.15V27.15H11.05V36.15ZM33 36.15V13.55H36.9V11.95H40.05V13.6H44.2V36.15ZM36.15 33H41.05H36.15ZM36.15 33H41.05V16.7H36.15Z"/></svg>
